img/svg/eye-closed2.svg

<svg width="16" height="16" viewBox="0 0 16 16" fill="none" xmlns="http://www.w3.org/2000/svg">
<path d="M7.88663 6L9.99996 8.10667V8C9.99996 7.46957 9.78925 6.96086 9.41417 6.58579C9.0391 6.21071 8.53039 6 7.99996 6H7.88663ZM5.01996 6.53333L6.05329 7.56667C6.01996 7.70667 5.99996 7.84667 5.99996 8C5.99996 8.53043 6.21067 9.03914 6.58575 9.41421C6.96082 9.78929 7.46953 10 7.99996 10C8.14663 10 8.29329 9.98 8.43329 9.94667L9.46663 10.98C9.01996 11.2 8.52663 11.3333 7.99996 11.3333C7.1159 11.3333 6.26806 10.9821 5.64294 10.357C5.01782 9.7319 4.66663 8.88406 4.66663 8C4.66663 7.47333 4.79996 6.98 5.01996 6.53333ZM1.33329 2.84667L2.85329 4.36667L3.15329 4.66667C2.05329 5.53333 1.18663 6.66667 0.666626 8C1.81996 10.9267 4.66663 13 7.99996 13C9.03329 13 10.02 12.8 10.92 12.44L11.2066 12.72L13.1533 14.6667L14 13.82L2.17996 2M7.99996 4.66667C8.88401 4.66667 9.73186 5.01786 10.357 5.64298C10.9821 6.2681 11.3333 7.11595 11.3333 8C11.3333 8.42667 11.2466 8.84 11.0933 9.21333L13.0466 11.1667C14.0466 10.3333 14.8466 9.24 15.3333 8C14.18 5.07333 11.3333 3 7.99996 3C7.06663 3 6.17329 3.16667 5.33329 3.46667L6.77996 4.9C7.15996 4.75333 7.56663 4.66667 7.99996 4.66667Z" fill="#6D6E73"/>
</svg>

<svg width="16" height="16" viewBox="0 0 16 16" fill="none" xmlns="http://www.w3.org/2000/svg"><path d="M7.887 6L10 8.107V8a2 2 0 00-2-2h-.113zm-2.867.533l1.033 1.034C6.02 7.707 6 7.847 6 8a2 2 0 002 2c.147 0 .293-.02.433-.053l1.034 1.033c-.447.22-.94.353-1.467.353A3.333 3.333 0 014.667 8c0-.527.133-1.02.353-1.467zM1.333 2.847l1.52 1.52.3.3c-1.1.866-1.966 2-2.486 3.333 1.153 2.927 4 5 7.333 5 1.033 0 2.02-.2 2.92-.56l.287.28 1.946 1.947.847-.847L2.18 2M8 4.667A3.333 3.333 0 0111.333 8c0 .427-.086.84-.24 1.213l1.954 1.954c1-.834 1.8-1.927 2.286-3.167-1.153-2.927-4-5-7.333-5-.933 0-1.827.167-2.667.467L6.78 4.9A3.36 3.36 0 018 4.667z" fill="#6D6E73"/></svg>
